X:3022
T:Cuckoo's Nest
R:March
C:Trad.
O:England, Sherborne, Morris
Z:Paul Hardy's Session Tunebook 2015 (see www.paulhardy.net). Creative Commons cc by-nc-sa licenced.
M:2/2
L:1/8
Q:1/2=70
K:Ador
|:"Am"cdcB A2a2|"G"e2e2 d2e2|"Em" BdBA G2AB|"Am"c2"G"d2 "Am"A4:|
|:"Am"a2a2 a2ba|"E"^g2e2 e3f|"G"=g2g2 g2ag|"Bm"f2d2 "D"d4|
"Am"cdcB A2a2|"G"e2e2 d2e2|"Em"BdBA G2AB|"Am"c2"G"d2 "Am"A4:|

